data/icons/ui/plus-circle-outline-symbolic.svg

<?xml version="1.0" encoding="UTF-8"?>
<svg xmlns="http://www.w3.org/2000/svg" height="16px" viewBox="0 0 16 16" width="16px"><path d="m 8 -0.03125 c -4.402344 0 -8 3.597656 -8 8 s 3.597656 8 8 8 s 8 -3.597656 8 -8 s -3.597656 -8 -8 -8 z m 0 1.980469 c 3.339844 0 6.015625 2.679687 6.015625 6.019531 s -2.675781 6.019531 -6.015625 6.019531 s -6.019531 -2.679687 -6.019531 -6.019531 s 2.679687 -6.019531 6.019531 -6.019531 z m -1 2.050781 v 3 h -3 v 2 h 3 v 3 h 2 v -3 h 3 v -2 h -3 v -3 z m 0 0" fill="#222222"/></svg>

<svg xmlns="http://www.w3.org/2000/svg" width="16" height="16"><path fill="#000" d="M8-.031c-4.402 0-8 3.597-8 8s3.598 8 8 8 8-3.598 8-8-3.598-8-8-8m0 1.98c3.34 0 6.016 2.68 6.016 6.02S11.34 13.989 8 13.989s-6.02-2.68-6.02-6.02S4.66 1.949 8 1.949M7 4v3H4v2h3v3h2V9h3V7H9V4zm0 0"/></svg>
